src/icons/letsencrypt.svg

<?xml version="1.0" encoding="UTF-8"?>
<svg xmlns="http://www.w3.org/2000/svg" xmlns:xlink="http://www.w3.org/1999/xlink" width="31.058824" height="32" viewBox="0 0 31.058824 32" version="1.1">
<g id="surface1">
<path style=" stroke:none;fill-rule:nonzero;fill:rgb(100%,64.313728%,0%);fill-opacity:1;" d="M 21.753906 17.171875 L 17.933594 17.171875 L 17.933594 15.199219 C 17.933594 13.632812 16.636719 12.347656 15.078125 12.347656 C 13.523438 12.347656 12.226562 13.644531 12.226562 15.199219 L 12.226562 17.171875 L 8.414062 17.171875 L 8.414062 15.199219 C 8.414062 11.5 11.429688 8.515625 15.097656 8.515625 C 18.800781 8.515625 21.785156 11.53125 21.785156 15.199219 Z M 21.753906 17.171875 "/>
<path style=" stroke:none;fill-rule:nonzero;fill:rgb(0%,22.745098%,43.921569%);fill-opacity:1;" d="M 23.332031 17.160156 L 6.84375 17.160156 C 6.503906 17.15625 6.171875 17.289062 5.929688 17.53125 C 5.6875 17.773438 5.554688 18.105469 5.558594 18.449219 L 5.558594 30.621094 C 5.550781 30.964844 5.683594 31.300781 5.925781 31.542969 C 6.167969 31.789062 6.5 31.925781 6.84375 31.917969 L 23.332031 31.917969 C 23.675781 31.925781 24.007812 31.789062 24.25 31.546875 C 24.492188 31.304688 24.625 30.972656 24.621094 30.632812 L 24.621094 18.457031 C 24.578125 17.734375 24.015625 17.160156 23.324219 17.160156 Z M 15.894531 25.164062 L 15.894531 26.8125 C 15.894531 27.253906 15.53125 27.65625 15.050781 27.65625 C 14.605469 27.65625 14.207031 27.292969 14.207031 26.8125 L 14.207031 25.171875 C 13.683594 24.890625 13.359375 24.328125 13.359375 23.675781 C 13.359375 22.753906 14.125 21.988281 15.050781 21.988281 C 15.976562 21.988281 16.738281 22.753906 16.738281 23.675781 C 16.78125 24.320312 16.417969 24.875 15.894531 25.171875 Z M 15.894531 25.164062 "/>
<path style=" stroke:none;fill-rule:nonzero;fill:rgb(100%,64.313728%,0%);fill-opacity:1;" d="M 5.15625 15.359375 L 1.167969 15.359375 C 0.523438 15.359375 0 14.839844 0 14.195312 C 0 13.550781 0.523438 13.027344 1.167969 13.027344 L 5.15625 13.027344 C 5.800781 13.027344 6.324219 13.550781 6.324219 14.195312 C 6.324219 14.839844 5.800781 15.359375 5.15625 15.359375 Z M 7.972656 9.085938 C 7.703125 9.09375 7.441406 8.992188 7.246094 8.804688 L 4.109375 6.230469 C 3.628906 5.828125 3.546875 5.105469 3.949219 4.582031 C 4.351562 4.101562 5.078125 4.019531 5.597656 4.425781 L 8.738281 7 C 9.21875 7.402344 9.300781 8.125 8.894531 8.648438 C 8.613281 8.929688 8.292969 9.089844 7.972656 9.089844 Z M 15.089844 6.355469 C 14.445312 6.351562 13.921875 5.832031 13.921875 5.1875 L 13.921875 1.167969 C 13.921875 0.523438 14.445312 0 15.089844 0 C 15.734375 0 16.253906 0.523438 16.253906 1.167969 L 16.253906 5.1875 C 16.253906 5.832031 15.734375 6.355469 15.089844 6.355469 Z M 22.167969 9.085938 C 21.84375 9.085938 21.484375 8.929688 21.28125 8.644531 C 20.878906 8.164062 20.960938 7.398438 21.441406 6.996094 L 24.578125 4.421875 C 25.0625 4.019531 25.824219 4.101562 26.226562 4.582031 C 26.628906 5.0625 26.546875 5.828125 26.066406 6.230469 L 22.929688 8.804688 C 22.71875 8.992188 22.445312 9.089844 22.164062 9.085938 Z M 28.953125 15.359375 L 24.929688 15.359375 C 24.285156 15.359375 23.765625 14.839844 23.765625 14.195312 C 23.761719 13.550781 24.285156 13.027344 24.929688 13.027344 L 28.953125 13.027344 C 29.59375 13.027344 30.117188 13.550781 30.117188 14.195312 C 30.117188 14.839844 29.59375 15.359375 28.953125 15.359375 Z M 28.953125 15.359375 "/>
</g>
</svg>

<svg role="img" viewBox="0 0 31.059 32" xmlns="http://www.w3.org/2000/svg"><path d="M21.754 17.172h-3.82v-1.973c0-1.566-1.297-2.851-2.856-2.851-1.555 0-2.851 1.297-2.851 2.851v1.973H8.414v-1.973c0-3.699 3.016-6.683 6.684-6.683 3.703 0 6.687 3.015 6.687 6.683Zm0 0" style="stroke:none;fill-rule:nonzero;fill:rgb(100%,64.313728%,0%);fill-opacity:1"/><path d="M23.332 17.16H6.844a1.275 1.275 0 0 0-.914.371 1.277 1.277 0 0 0-.371.918v12.172a1.267 1.267 0 0 0 1.285 1.297h16.488c.344.008.676-.129.918-.371s.375-.574.371-.914V18.457c-.043-.723-.605-1.297-1.297-1.297Zm-7.437 8.004v1.648a.85.85 0 0 1-.844.844.848.848 0 0 1-.844-.843v-1.641c-.523-.281-.848-.844-.848-1.496 0-.922.766-1.688 1.692-1.688.926 0 1.687.766 1.687 1.688.043.644-.32 1.199-.843 1.496Zm0 0" style="stroke:none;fill-rule:nonzero;fill:rgb(0%,22.745098%,43.921569%);fill-opacity:1"/><path d="M5.156 15.36H1.168a1.165 1.165 0 1 1 0-2.333h3.988a1.165 1.165 0 1 1 0 2.332m2.817-6.274a1.008 1.008 0 0 1-.727-.281L4.11 6.23a1.194 1.194 0 0 1-.16-1.648 1.19 1.19 0 0 1 1.649-.156L8.738 7a1.19 1.19 0 0 1 .157 1.648c-.282.282-.602.442-.922.442Zm7.117-2.73a1.171 1.171 0 0 1-1.168-1.168v-4.02a1.165 1.165 0 1 1 2.332 0v4.02c0 .644-.52 1.167-1.164 1.167m7.078 2.73c-.324 0-.684-.156-.887-.441-.402-.48-.32-1.247.16-1.649l3.137-2.574c.485-.402 1.246-.32 1.649.16.402.48.32 1.246-.16 1.648L22.93 8.805a1.123 1.123 0 0 1-.766.28Zm6.785 6.273H24.93c-.645 0-1.164-.52-1.164-1.164a1.163 1.163 0 0 1 1.164-1.168h4.023c.64 0 1.164.524 1.164 1.168 0 .645-.523 1.164-1.164 1.164m0 0" style="stroke:none;fill-rule:nonzero;fill:rgb(100%,64.313728%,0%);fill-opacity:1"/></svg>
